!! 00000] TT[WS
!!!OTL: Shuzhuang tai
!!!ARE: Asia, China, Shanxi Qinyuan
!! Ethnic Group: Han
!! WII, 87
!!!SCT: J0527
!!!YEM: Copyright 1995, estate of Helmut Schaffrath.
**kern
*ICvox
*Ivox
*M2/4
*k[b-]
*F:
{8f
8f
8f
8d
=1
2cc
=2
8dd
8ff
8cc
8a
=3
8g
8f
4g}
=4
{8g
8a
4cc
=5
8ff
8cc
8a
8g
=6
8f
8c
8f
8d
=7
2c}
=8
{8d
16c
16d
4f
=9
8g
16f
16g
4a
=10
16g
16a
16g
16f
8f
8c
=11
2d}
=12
{8dd
8ff
8a
8cc
=13
8dd
8ff
8cc
8a
=14
8g
16g
16a
8f
8g
=15
8cc
16g
16cc
8g
8d
=16
2c}
=17
{8dd
8ff
8a
8cc
=18
8dd
8ff
8cc
8a
=19
8g
16g
16a
8f
8g
=20
8cc
16g
16cc
8g
8d
=21
2c}
==
!!!AGN: Xiaodiao. Qingge, Sichun
!!!ONB: ESAC (Essen Associative Code) Database: CHINA
!!!AMT: simple duple
!!!AIN: vox
!!!EED: Helmut Schaffrath
!!!EEV: 1.0
*-
